X: 4817
T: Boys Of The Town, The
R: jig
M: 6/8
K: Gmajor
GDG GB/c/d|edB dBF|GAF GBd|edB A2 D|
~G3 GBd|edB gfg|edB A^GA|BGF G2:|
def gfg|afd edB|dd/e/f gbg|afd e2 g|
[1 def gfg|afd efg|edB A^GA|BGF G2:|
[2 dd/e/f gbb|faa ee/f/g|edB A3|BGF G2||

